X: 1
T: Miss Ann Rutherford
C: Walter Rutherford
R: strathspey
Z: 2008 John Chambers <jc:trillian.mit.edu>
S: Printed MS from Sylvia Miskoe
M: C
L: 1/16
K: C
[| "C"g4 g3f "Am"e3d c4 | "D(m)"Ad3 d3c "G7"B3A G4 | "C7"E3G C3c "F"Ac3 F3e |\
[1 "Dm"f3d e3c "G7"Bd3 G4 :|\
[2 "C"(3e2f2g2 "G7"G3B "C"c4 "fine"c4 |]
[| "Dm"d4 d3e "G7"f3e d4  |  "C"e3G c3e "C7"g3f e4 |\
    "F"f4 f3g     a3g f3e | "Dm"f3e d3c "G7"Bd3 G4 "d.C."y/|]
